X:1
T:Title
%%score { ( 1 3 ) | ( 2 4 ) }
L:1/8
M:6/8
K:G
V:1 bass nm="Grand Piano"
V:3 bass 
V:2 bass 
V:4 bass 
V:1
 z3 z2[Q:1/4=100] D, | z[K:treble] GG B,GG | EGG z GD | [B,DG]3- [B,DG]2 [DGB] | %4
[M:5/8] [DFA]-[DFA]- [DFA]3 |[M:1/8] z |[M:3/4] G2 z .B3 | ed .B2 B,D | G2 B [EA]2 F | %9
[M:5/8] G-G- G3 |[M:1/8][K:bass] D, |[M:3/4] z[K:treble] G GB, GG | EG .G2 GD | %13
 [B,DG]4- [B,DG][DGB] |[M:5/8] [DFA]-[DFA]- [DFA]3 |[M:1/8] z |[M:3/4] G2 z .B3 | ed .B2 B,D | %18
 G2 B [EA]2 F |[M:5/8] G-G- G3 |[M:1/8] G |[M:3/4] [FA]2 [GB] [Ac]2 [ce] | [Bd]3 B2 B | %23
 A2 d [EG^c]2 [^CGe] |[M:5/8] [DFd]2 E D2 |[M:1/8] D |[M:3/4] G2 G B2 B | ed [DGB] [B,G]2 [DGB] | %28
 [CEA]2 [EAc] [DGB]2 [CFA] |[M:5/8] [B,G]-[B,G]- [B,G]3 |] %30
V:2
 z6 | z [B,D][G,B,D] z [B,D][B,D] | z [B,D][B,D] z [B,D][G,B,] | G,2 D, B,,2 G,, | %4
[M:5/8] D,-D,- D,3 |[M:1/8] D |[M:3/4] G,,[E,G,] [E,G,B,]G,, [D,G,][D,G,B,] | %7
 G,,[D,G,B,] [D,G,B,]G,, [D,G,][G,B,] | [G,B,D]2 [G,DG][K:bass] [C,C]2 [D,CD] | %9
[M:5/8] [G,B,D]-[G,B,D]- [G,B,D]3 |[M:1/8] z |[M:3/4] z [B,D] .[G,B,D]2 [B,D][B,D] | %12
 z [B,D] .[B,D]2 [B,D][G,B,] | G,2 D, B,,2 G,, |[M:5/8] D,-D,- D,3 |[M:1/8] D | %16
[M:3/4] G,,[D,G,] [D,G,B,]G,, [D,G,][D,G,B,] | G,,[D,G,B,] [E,G,B,]G,, [D,G,][G,B,] | %18
 [G,B,D]2 [G,DG][K:bass] [C,C]2 [D,CD] |[M:5/8] [G,B,D]-[G,B,D]- [G,B,D]3 |[M:1/8] [G,B,D] | %21
[M:3/4] [D,D]2 [D,D] [D,D]2 [F,D] | [G,D]3 [G,DG]2 [G,DG] | [A,DF]2 [A,DF][K:bass] A,,2 A,, | %24
[M:5/8] D,2 C B,2 |[M:1/8][K:treble] [A,C] |[M:3/4] [G,B,D]2 [G,B,D] [G,DG]2 [G,DG] | %27
 .C2[K:bass] z2 z2 | C,2 C, D,2 D, |[M:5/8] G,-G,- G,3 |] %30
V:3
 x6 | .G,3[K:treble] z3 | z3 .G,3 | x6 |[M:5/8] x5 |[M:1/8] x |[M:3/4] z B, .G2 B,B | z2 z .G3 | %8
 x6 |[M:5/8] x5 |[M:1/8][K:bass] x |[M:3/4] G,2[K:treble] z2 z2 | z2 z .G,3 | x6 |[M:5/8] x5 | %15
[M:1/8] x |[M:3/4] z B, .G2 B,B | z2 z .G3 | x6 |[M:5/8] x5 |[M:1/8] x |[M:3/4] x6 | x6 | x6 | %24
[M:5/8] x5 |[M:1/8] x |[M:3/4] x6 | x6 | x6 |[M:5/8] x5 |] %30
V:4
 x6 | x6 | x6 | x6 |[M:5/8] x5 |[M:1/8] x |[M:3/4] x6 | x6 | x3[K:bass] x3 |[M:5/8] x5 |[M:1/8] x | %11
[M:3/4] x6 | x6 | x6 |[M:5/8] x5 |[M:1/8] x |[M:3/4] x6 | x6 | x3[K:bass] x3 |[M:5/8] x5 | %20
[M:1/8] x |[M:3/4] x6 | x6 | x3[K:bass] x3 |[M:5/8] x5 |[M:1/8][K:treble] x |[M:3/4] x6 | %27
 [G,G]-[G,B,G][K:bass] G, G,2 G, | x6 |[M:5/8] x5 |] %30

